UI/Core-UI/SVG/help_solid_24px.svg

<svg width="24" height="24" viewBox="0 0 24 24" fill="none" xmlns="http://www.w3.org/2000/svg">
<path fill-rule="evenodd" clip-rule="evenodd" d="M12 2C10.0222 2 8.08879 2.58649 6.4443 3.6853C4.79981 4.78412 3.51809 6.3459 2.76121 8.17317C2.00433 10.0004 1.8063 12.0111 2.19215 13.9509C2.578 15.8907 3.53041 17.6725 4.92894 19.0711C6.32746 20.4696 8.10929 21.422 10.0491 21.8079C11.9889 22.1937 13.9996 21.9957 15.8268 21.2388C17.6541 20.4819 19.2159 19.2002 20.3147 17.5557C21.4135 15.9112 22 13.9778 22 12C22 10.6868 21.7413 9.38642 21.2388 8.17317C20.7363 6.95991 19.9997 5.85752 19.0711 4.92893C18.1425 4.00035 17.0401 3.26375 15.8268 2.7612C14.6136 2.25866 13.3132 2 12 2ZM13 18H11V16H13V18ZM15.66 10.24C15.5721 10.4772 15.4545 10.7023 15.31 10.91C15.1659 11.1097 15.0054 11.2971 14.83 11.47C14.65 11.63 14.48 11.77 14.31 11.9C14.1381 12.0042 13.9743 12.1212 13.82 12.25C13.6653 12.3782 13.5245 12.5223 13.4 12.68C13.2765 12.8567 13.1757 13.0482 13.1 13.25C13.0272 13.4931 12.9935 13.7463 13 14H11C10.994 13.6639 11.0275 13.3282 11.1 13C11.1651 12.7247 11.2659 12.4591 11.4 12.21C11.533 11.9721 11.6979 11.7534 11.89 11.56C12.1056 11.3415 12.3326 11.1345 12.57 10.94C12.81 10.75 13.04 10.53 13.28 10.3C13.3895 10.1954 13.4767 10.0697 13.5362 9.9305C13.5958 9.79128 13.6265 9.64143 13.6265 9.49C13.6265 9.33857 13.5958 9.18872 13.5362 9.0495C13.4767 8.91028 13.3895 8.78458 13.28 8.68C13.007 8.43322 12.6477 8.30389 12.28 8.32C11.8229 8.31813 11.3714 8.42074 10.96 8.62C10.5433 8.81657 10.1616 9.08005 9.83 9.4L8.83 8.11C9.00276 7.9096 9.19356 7.72549 9.4 7.56C9.93188 7.14837 10.5456 6.85515 11.2 6.7C11.5916 6.59729 11.9951 6.54686 12.4 6.55C12.945 6.53371 13.4882 6.62197 14 6.81C14.3984 6.96206 14.7597 7.19728 15.06 7.5C15.3179 7.76675 15.5127 8.08797 15.63 8.44C15.7414 8.76169 15.7988 9.09958 15.8 9.44C15.8029 9.71301 15.7555 9.98421 15.66 10.24Z" fill="#0F1621"/>
</svg>

<svg xmlns="http://www.w3.org/2000/svg" width="24" height="24" viewBox="0 0 24 24"><rect width="24" height="24" style="fill:none"/><path d="M12,2A10,10,0,1,0,22,12,10,10,0,0,0,12,2Zm1,16H11V16h2Zm2.66-7.76a3,3,0,0,1-.35.67,4.41,4.41,0,0,1-.48.56c-.18.16-.35.3-.52.43a4,4,0,0,0-.49.35,2.86,2.86,0,0,0-.42.43,2.57,2.57,0,0,0-.3.57A2.4,2.4,0,0,0,13,14H11a4.28,4.28,0,0,1,.1-1,3.24,3.24,0,0,1,.3-.79,3,3,0,0,1,.49-.65,8.7,8.7,0,0,1,.68-.62c.24-.19.47-.41.71-.64a1.12,1.12,0,0,0,0-1.62,1.4,1.4,0,0,0-1-.36,3,3,0,0,0-1.32.3,4.22,4.22,0,0,0-1.13.78l-1-1.29a4.32,4.32,0,0,1,.57-.55,4.72,4.72,0,0,1,1.8-.86,4.59,4.59,0,0,1,1.2-.15A4.27,4.27,0,0,1,14,6.81a3,3,0,0,1,1.06.69,2.48,2.48,0,0,1,.57.94,3.09,3.09,0,0,1,.17,1A2.22,2.22,0,0,1,15.66,10.24Z" style="fill-rule:evenodd"/></svg>
